kiosk-igrinskij/images/78c13ca471be1e97a638682a9799a286.svg

<svg fill="none" height="10" viewBox="0 0 24 10" width="24" xmlns="http://www.w3.org/2000/svg"><path d="m.0798111 3.49587c.1453969-.216.4391389-.27422.6570419-.13009l1.242017.82082c.03884.02583.08434.03943.13123.03943h2.01809c.10707 0 .19801-.0728.22641-.17513.07817-.28269.18429-.55316.3169-.80903.0474-.0911.03267-.20053-.04028-.27284l-1.30886-1.29693c-.0445-.04412-.06917-.10376-.06917-.16622v-1.2711c0-.129589.10612-.23478.23685-.23478h7.34046.0014.0019 5.5856.0019.0014 7.3405c.1307 0 .2368.105191.2368.23478v1.2711c0 .06246-.0251.1221-.0692.16622l-1.3083 1.29693c-.073.07231-.0876.18174-.0403.27284.7243 1.39507.6973 3.232-.6793 5.00417-.0156.02021-.035.03899-.0554.05397-3.405 2.53519-7.1453.27421-7.3154-2.90895-.0071-.12584-.1065-.22585-.2335-.22585h-1.3439c-.127 0-.2269.10051-.2335.22585-.1189 2.22576-1.9829 4.00024-4.25719 4.00024-2.27425 0-4.13825-1.77448-4.25715-4.00024-.00711-.12534-.10656-.22585-.23351-.22585h-2.14976c-.0469 0-.0924-.01361-.13124-.03944l-1.48081-.97855c-.21840073-.14379-.277128-.43536-.1317289-.65135zm21.9301889.90199c-.0825-.33947-.2174-.65835-.3974-.9476-.082-.13195-.2639-.15822-.3743-.04885l-.9014.89358c-.1492.14743-.0436.40055.1677.40055h1.2761c.1568.00005.2657-.14694.2293-.29768zm-.3979 2.48212c.1795-.28974.315-.60856.3974-.94759.0369-.15074-.0725-.29773-.2288-.29773h-1.2761c-.2108 0-.3169.25312-.1677.40099l.9014.89313c.1104.10949.2923.08316.3738-.0488zm-2.3491 1.25095c0 .15448.1483.26298.3003.22679.3425-.08172.6642-.2155.9564-.39394.1331-.08123.1592-.26154.0493-.37048l-.9014-.89357c-.1493-.14793-.4046-.04318-.4046.16621zm-.0005-4.66563c.0005.20851.2553.31321.4045.16528l.9015-.89308c.1104-.10943.0838-.28974-.0493-.37048-.2923-.17795-.6139-.31227-.9564-.39394-.152-.03613-.3003.07187-.3003.22728zm-.9474-1.26593c.0005-.15448-.1478-.26297-.3004-.22679-.3424.08173-.6641.21556-.9563.39394-.1332.08124-.1592.26155-.0493.37048l.9014.89358c.1492.14793.4045.04317.4045-.16622zm-1.2562 5.76392c.2922.17794.6139.31226.9563.39394.1521.03662.3004-.07182.3004-.22679v-1.26499c0-.20895-.2554-.31414-.4045-.16622l-.9015.89358c-.1104.10937-.0839.28968.0493.37048zm-1.4903-2.03085c.0824.33948.2175.65835.3974.94804.0815.13146.2634.15779.3738.04836l.9014-.89358c.1492-.14743.0436-.40055-.1672-.40055h-1.2762c-.1567 0-.2657.14699-.2292.29773zm.2293-1.23685h1.2761c.2108 0 .3164-.25312.1673-.40099l-.9015-.89357c-.1104-.10943-.2923-.08311-.3737.04885-.1795.28974-.3151.60856-.3975.94804-.0365.15068.0725.29767.2293.29767zm-4.1132-.29773c-.0825-.33947-.2174-.65835-.3975-.9476-.0819-.13195-.2638-.15822-.3742-.04885l-.9014.89358c-.14928.14743-.0436.40055.1676.40055h1.2762c.1568.00005.2657-.14694.2293-.29768zm-.398 2.48262c.1796-.28974.3151-.60856.3975-.9476.0369-.15118-.0725-.29817-.2288-.29817h-1.2762c-.21076 0-.31688.25312-.1676.40099l.9014.89358c.1103.10943.2922.08316.3737-.0488zm-2.34905 1.25045c0 .15448.14829.26298.30036.22679.34246-.08172.66415-.2155.95639-.39394.1331-.08123.1592-.26154.0493-.37048l-.90146-.89357c-.14924-.14793-.40453-.04318-.40453.16621zm-.00049-4.66607c.0005.20895.25534.31364.40452.16577l.90142-.89357c.1104-.10943.0839-.28975-.0493-.37048-.29225-.17795-.61388-.31227-.95635-.39395-.15206-.03612-.30035.07188-.30035.22729zm-.9474-1.26549c.0005-.15448-.14778-.26297-.30035-.22679-.34247.08173-.66415.21556-.95639.39394-.13312.08124-.15918.26155-.04928.37048l.90144.89358c.14924.14793.40453.04317.40453-.16622zm-1.25624 5.76392c.29229.17794.61393.31226.95639.39394.15207.03662.30035-.07182.30035-.22679v-1.26499c0-.20895-.25535-.31414-.40452-.16622l-.90145.89358c-.11039.10937-.08389.28968.04923.37048zm-1.49026-2.03085c.08245.33948.2174.65835.39742.94804.08144.13146.2634.15779.37374.04836l.90144-.89358c.14924-.14743.04356-.40055-.16723-.40055h-1.27613c-.15679 0-.26574.14699-.22924.29773zm.22929-1.23685h1.27614c.21079 0 .31641-.25312.16723-.40099l-.90145-.89357c-.11039-.10943-.29229-.08311-.37374.04885-.17951.28974-.31502.60856-.39742.94804-.03655.15068.0724.29767.22924.29767z" fill="#f1e9dd"/></svg>

<svg width="24" height="10" viewBox="0 0 24 10" fill="none" xmlns="http://www.w3.org/2000/svg">
<path d="M0.0798111 3.49587C0.225208 3.27987 0.51895 3.22165 0.736853 3.36578L1.97887 4.1866C2.01771 4.21243 2.06321 4.22603 2.1101 4.22603H4.12819C4.23526 4.22603 4.3262 4.15323 4.3546 4.0509C4.43277 3.76821 4.53889 3.49774 4.6715 3.24187C4.7189 3.15077 4.70417 3.04134 4.63122 2.96903L3.32236 1.6721C3.27786 1.62798 3.25319 1.56834 3.25319 1.50588V0.23478C3.25319 0.105191 3.35931 0 3.49004 0H10.8305H10.8319H10.8338H16.4194H16.4213H16.4227H23.7632C23.8939 0 24 0.105191 24 0.23478V1.50588C24 1.56834 23.9749 1.62798 23.9308 1.6721L22.6225 2.96903C22.5495 3.04134 22.5349 3.15077 22.5822 3.24187C23.3065 4.63694 23.2795 6.47387 21.9029 8.24604C21.8873 8.26625 21.8679 8.28503 21.8475 8.30001C18.4425 10.8352 14.7022 8.57422 14.5321 5.39106C14.525 5.26522 14.4256 5.16521 14.2986 5.16521H12.9547C12.8277 5.16521 12.7278 5.26572 12.7212 5.39106C12.6023 7.61682 10.7383 9.3913 8.46401 9.3913C6.18976 9.3913 4.32576 7.61682 4.20686 5.39106C4.19975 5.26572 4.1003 5.16521 3.97335 5.16521H1.82359C1.77669 5.16521 1.73119 5.1516 1.69235 5.12577L0.21154 4.14722C-0.00686073 4.00343 -0.065588 3.71186 0.0798111 3.49587ZM22.01 4.39786C21.9275 4.05839 21.7926 3.73951 21.6126 3.45026C21.5306 3.31831 21.3487 3.29204 21.2383 3.40141L20.3369 4.29499C20.1877 4.44242 20.2933 4.69554 20.5046 4.69554H21.7807C21.9375 4.69559 22.0464 4.5486 22.01 4.39786ZM21.6121 6.87998C21.7916 6.59024 21.9271 6.27142 22.0095 5.93239C22.0464 5.78165 21.937 5.63466 21.7807 5.63466H20.5046C20.2938 5.63466 20.1877 5.88778 20.3369 6.03565L21.2383 6.92878C21.3487 7.03827 21.5306 7.01194 21.6121 6.87998ZM19.263 8.13093C19.263 8.28541 19.4113 8.39391 19.5633 8.35772C19.9058 8.276 20.2275 8.14222 20.5197 7.96378C20.6528 7.88255 20.6789 7.70224 20.569 7.5933L19.6676 6.69973C19.5183 6.5518 19.263 6.65655 19.263 6.86594L19.263 8.13093ZM19.2625 3.4653C19.263 3.67381 19.5178 3.77851 19.667 3.63058L20.5685 2.7375C20.6789 2.62807 20.6523 2.44776 20.5192 2.36702C20.2269 2.18907 19.9053 2.05475 19.5628 1.97308C19.4108 1.93695 19.2625 2.04495 19.2625 2.20036V3.4653ZM18.3151 2.19937C18.3156 2.04489 18.1673 1.9364 18.0147 1.97258C17.6723 2.05431 17.3506 2.18814 17.0584 2.36652C16.9252 2.44776 16.8992 2.62807 17.0091 2.737L17.9105 3.63058C18.0597 3.77851 18.315 3.67375 18.315 3.46436L18.3151 2.19937ZM17.0589 7.96329C17.3511 8.14123 17.6728 8.27555 18.0152 8.35723C18.1673 8.39385 18.3156 8.28541 18.3156 8.13044V6.86545C18.3156 6.6565 18.0602 6.55131 17.9111 6.69923L17.0096 7.59281C16.8992 7.70218 16.9257 7.88249 17.0589 7.96329ZM15.5686 5.93244C15.651 6.27192 15.7861 6.59079 15.966 6.88048C16.0475 7.01194 16.2294 7.03827 16.3398 6.92884L17.2412 6.03526C17.3904 5.88783 17.2848 5.63471 17.074 5.63471H15.7978C15.6411 5.63471 15.5321 5.7817 15.5686 5.93244ZM15.7979 4.69559H17.074C17.2848 4.69559 17.3904 4.44247 17.2413 4.2946L16.3398 3.40103C16.2294 3.2916 16.0475 3.31792 15.9661 3.44988C15.7866 3.73962 15.651 4.05844 15.5686 4.39792C15.5321 4.5486 15.6411 4.69559 15.7979 4.69559ZM11.6847 4.39786C11.6022 4.05839 11.4673 3.73951 11.2872 3.45026C11.2053 3.31831 11.0234 3.29204 10.913 3.40141L10.0116 4.29499C9.86232 4.44242 9.968 4.69554 10.1792 4.69554H11.4554C11.6122 4.69559 11.7211 4.5486 11.6847 4.39786ZM11.2867 6.88048C11.4663 6.59074 11.6018 6.27192 11.6842 5.93288C11.7211 5.7817 11.6117 5.63471 11.4554 5.63471H10.1792C9.96844 5.63471 9.86232 5.88783 10.0116 6.0357L10.913 6.92928C11.0233 7.03871 11.2052 7.01244 11.2867 6.88048ZM8.93765 8.13093C8.93765 8.28541 9.08594 8.39391 9.23801 8.35772C9.58047 8.276 9.90216 8.14222 10.1944 7.96378C10.3275 7.88255 10.3536 7.70224 10.2437 7.5933L9.34224 6.69973C9.193 6.5518 8.93771 6.65655 8.93771 6.86594L8.93765 8.13093ZM8.93716 3.46486C8.93766 3.67381 9.1925 3.7785 9.34168 3.63063L10.2431 2.73706C10.3535 2.62763 10.327 2.44731 10.1938 2.36658C9.90155 2.18863 9.57992 2.05431 9.23745 1.97263C9.08539 1.93651 8.9371 2.04451 8.9371 2.19992L8.93716 3.46486ZM7.98976 2.19937C7.99026 2.04489 7.84198 1.9364 7.68941 1.97258C7.34694 2.05431 7.02526 2.18814 6.73302 2.36652C6.5999 2.44776 6.57384 2.62807 6.68374 2.737L7.58518 3.63058C7.73442 3.77851 7.98971 3.67375 7.98971 3.46436L7.98976 2.19937ZM6.73352 7.96329C7.02581 8.14123 7.34745 8.27555 7.68991 8.35723C7.84198 8.39385 7.99026 8.28541 7.99026 8.13044V6.86545C7.99026 6.6565 7.73491 6.55131 7.58574 6.69923L6.68429 7.59281C6.5739 7.70218 6.6004 7.88249 6.73352 7.96329ZM5.24326 5.93244C5.32571 6.27192 5.46066 6.59079 5.64068 6.88048C5.72212 7.01194 5.90408 7.03827 6.01442 6.92884L6.91586 6.03526C7.0651 5.88783 6.95942 5.63471 6.74863 5.63471H5.4725C5.31571 5.63471 5.20676 5.7817 5.24326 5.93244ZM5.47255 4.69559H6.74869C6.95948 4.69559 7.0651 4.44247 6.91592 4.2946L6.01447 3.40103C5.90408 3.2916 5.72218 3.31792 5.64073 3.44988C5.46122 3.73962 5.32571 4.05844 5.24331 4.39792C5.20676 4.5486 5.31571 4.69559 5.47255 4.69559Z" fill="#F1E9DD"/>
</svg>
